X: 20712
T: The Malt-man Comes on Monday
%R: slip-jig
B: James Oswald "The Caledonian Pocket Companion" v.2 p.71 #2
Z: 2019 John Chambers <jc:trillian.mit.edu>
M: 9/8
L: 1/8
K: Amix
"_Brisk"A |\
(B/c/d)d d2b afd | Tc2e eBd Tc2A | (B/c/d)d d2b abc' | d'2d ded c2A :: afa bgb afd |
Tc2e eBd Tc2A | afa bgb abc' | d'2d ded Tc2A :: FAF GBG FAF | E2g Bcd Tc2A |
FAF GBG FAF | Egf edc d2D :: afd bge afd | efg Bcd Tc2A | afd bge c'ac' | d'2d ded Tc2A ::
d3 B3 AFA | B2e efd Tc2A | d3 B3 AFA | Bgf edc d2D :: adb abg fed | efg Bed Tc2A |
fad gbe abc' | d'2d ded Tc2A :: BdF GBE FAD | EGB egb Tc2A | GbG FaF Egf |
efd cAc d2D :: a(f/g/a) dfa dgb | efg Bcd Tc2A | a(f/g/a) dgb eac' | d'2d ded Tc2A :|


